X:1
T:Title
L:1/8
M:2/4
K:G
V:1 treble nm="Grand Piano"
V:1
 z2[Q:1/4=100] EF/F/ | GF EF | GF EF | GF AG | F2 ^DE | FE ^DE | FE ^DE | FE GF | E2 BA | GF AG | %10
 FE GF | E^D EE | B,2 BA | GF AG | FE GF | E^D EE | B,2 Bc | Bc Be/c/ | A2 AB | AB Ad/B/ | G2 GA | %21
 GA Gc/A/ | F2 GA | Bc Ac | B2 Bc | Bc Be/c/ | A2 AB | AB Ad/B/ | G2 GA | GA Gc/A/ | F2 GA | %31
 Bc B/A/G/F/ | E2 z2 |] %33

